ix/bag_bold.svg

<svg viewBox="0 0 24 24" fill="none" xmlns="http://www.w3.org/2000/svg" height="1em" width="1em">
  <path d="M19.24 5.57859H18.84L15.46 2.19859C15.19 1.92859 14.75 1.92859 14.47 2.19859C14.2 2.46859 14.2 2.90859 14.47 3.18859L16.86 5.57859H7.14L9.53 3.18859C9.8 2.91859 9.8 2.47859 9.53 2.19859C9.26 1.92859 8.82 1.92859 8.54 2.19859L5.17 5.57859H4.77C3.87 5.57859 2 5.57859 2 8.13859C2 9.10859 2.2 9.74859 2.62 10.1686C2.86 10.4186 3.15 10.5486 3.46 10.6186C3.75 10.6886 4.06 10.6986 4.36 10.6986H19.64C19.95 10.6986 20.24 10.6786 20.52 10.6186C21.36 10.4186 22 9.81859 22 8.13859C22 5.57859 20.13 5.57859 19.24 5.57859Z" fill="#292D32"/>
  <path d="M19.0506 12H4.87064C4.25064 12 3.78064 12.55 3.88064 13.16L4.72064 18.3C5.00064 20.02 5.75064 22 9.08064 22H14.6906C18.0606 22 18.6606 20.31 19.0206 18.42L20.0306 13.19C20.1506 12.57 19.6806 12 19.0506 12ZM10.6106 18.45C10.6106 18.84 10.3006 19.15 9.92064 19.15C9.53064 19.15 9.22064 18.84 9.22064 18.45V15.15C9.22064 14.77 9.53064 14.45 9.92064 14.45C10.3006 14.45 10.6106 14.77 10.6106 15.15V18.45ZM14.8906 18.45C14.8906 18.84 14.5806 19.15 14.1906 19.15C13.8106 19.15 13.4906 18.84 13.4906 18.45V15.15C13.4906 14.77 13.8106 14.45 14.1906 14.45C14.5806 14.45 14.8906 14.77 14.8906 15.15V18.45Z" fill="#292D32"/>
</svg>

<svg viewBox="0 0 24 24" fill="none" xmlns="http://www.w3.org/2000/svg" height="1em" width="1em">
  <path d="M19.24 5.579h-.4l-3.38-3.38a.706.706 0 0 0-.99 0c-.27.27-.27.71 0 .99l2.39 2.39H7.14l2.39-2.39c.27-.27.27-.71 0-.99a.706.706 0 0 0-.99 0l-3.37 3.38h-.4c-.9 0-2.77 0-2.77 2.56 0 .97.2 1.61.62 2.03.24.25.53.38.84.45.29.07.6.08.9.08h15.28c.31 0 .6-.02.88-.08.84-.2 1.48-.8 1.48-2.48 0-2.56-1.87-2.56-2.76-2.56ZM19.05 12H4.87c-.62 0-1.09.55-.99 1.16l.84 5.14C5 20.02 5.75 22 9.08 22h5.61c3.37 0 3.97-1.69 4.33-3.58l1.01-5.23a.997.997 0 0 0-.98-1.19Zm-8.44 6.45a.696.696 0 1 1-1.39 0v-3.3c0-.38.31-.7.7-.7a.7.7 0 0 1 .69.7v3.3Zm4.28 0c0 .39-.31.7-.7.7-.38 0-.7-.31-.7-.7v-3.3c0-.38.32-.7.7-.7.39 0 .7.32.7.7v3.3Z" fill="#292D32"/>
</svg>
